svg/Frame-1261155980.svg

<svg width="48" height="71" viewBox="0 0 48 71" fill="none" xmlns="http://www.w3.org/2000/svg"><rect width="48" height="71" fill="#DADADA"/><mask id="path-2-inside-1_2483_15959" fill="white"><path d="M1140 90L-300 89.9999L-300 -19.0001L1140 -19L1140 90Z"/></mask><path d="M1140 90L-300 89.9999L-300 -19.0001L1140 -19L1140 90Z" fill="white"/><path d="M1.84801 61.48C1.48801 62.008 1.09201 62.524 0.660006 63.004L0.384006 62.08C1.56001 60.628 2.41201 58.96 2.95201 57.088L3.75601 57.46C3.46801 58.384 3.12001 59.248 2.70001 60.064V68.224H1.84801V61.48ZM3.70801 58.78H7.40401C7.22401 58.3 7.02001 57.844 6.78001 57.388L7.60801 57.16C7.86001 57.688 8.05201 58.168 8.19601 58.612L7.74001 58.78H11.52V59.596H3.70801V58.78ZM4.81201 60.568H10.488V61.348H4.81201V60.568ZM4.81201 62.26H10.488V63.052H4.81201V62.26ZM10.704 64.036V68.2H9.86401V67.552H5.42401V68.2H4.58401V64.036H10.704ZM5.42401 66.736H9.86401V64.84H5.42401V66.736ZM14.292 58.084H16.932C17.1 57.772 17.22 57.46 17.304 57.124L18.204 57.244C18.108 57.544 17.988 57.82 17.844 58.084H21.804V63.952H14.292V58.084ZM20.964 63.208V62.2H15.132V63.208H20.964ZM15.132 61.504H20.964V60.52H15.132V61.504ZM15.132 59.824H20.964V58.84H15.132V59.824ZM13.692 64.768L14.508 64.936C14.22 66.04 13.824 66.988 13.308 67.804L12.576 67.336C13.092 66.568 13.464 65.704 13.692 64.768ZM19.476 68.02H16.392C15.696 68.02 15.36 67.672 15.36 67V64.708H16.236V66.82C16.236 67.096 16.368 67.24 16.644 67.24H19.308C19.584 67.24 19.776 67.168 19.872 67.048C20.016 66.88 20.124 66.412 20.172 65.632L21 65.896C20.904 66.904 20.736 67.516 20.496 67.744C20.28 67.924 19.932 68.02 19.476 68.02ZM17.868 64.276C18.516 64.9 19.008 65.452 19.356 65.92L18.696 66.376C18.336 65.86 17.856 65.296 17.232 64.672L17.868 64.276ZM21.744 64.552C22.512 65.512 23.1 66.364 23.508 67.084L22.824 67.564C22.392 66.784 21.804 65.92 21.072 64.972L21.744 64.552ZM33.432 61.936V64.288H27.444V65.116H33.984V68.2H33.132V67.696H27.444V68.188H26.58V61.936H33.432ZM27.444 66.928H33.132V65.812H27.444V66.928ZM27.444 63.592H32.592V62.632H27.444V63.592ZM35.088 60.484V62.656H34.248V61.228H25.752V62.656H24.912V60.484H29.664C29.544 60.196 29.424 59.944 29.292 59.704L30.132 59.56L30.06 59.512C30.636 58.792 31.044 58.012 31.308 57.148L32.136 57.328C32.052 57.58 31.968 57.82 31.872 58.06H35.34V58.816H33.204C33.456 59.152 33.66 59.464 33.804 59.752L33.036 60.04C32.82 59.608 32.568 59.2 32.28 58.816H31.524C31.308 59.224 31.056 59.608 30.792 59.968L30.144 59.572C30.276 59.848 30.408 60.148 30.528 60.484H35.088ZM26.352 58.816C26.064 59.284 25.752 59.716 25.392 60.112L24.636 59.632C25.356 58.888 25.884 58.048 26.22 57.136L27.048 57.316C26.952 57.58 26.844 57.82 26.748 58.06H29.964V58.816H27.948C28.212 59.176 28.44 59.524 28.608 59.848L27.816 60.148C27.6 59.692 27.336 59.248 27.036 58.816H26.352ZM40.992 57.676H46.86V63.22H44.364V64.636H47.064V65.452H44.364V67.012H47.508V67.84H40.284V67.012H43.5V65.452H40.788V64.636H43.5V63.22H40.992V57.676ZM46.032 62.452V60.832H44.364V62.452H46.032ZM43.5 62.452V60.832H41.82V62.452H43.5ZM41.82 60.076H43.5V58.444H41.82V60.076ZM44.364 58.444V60.076H46.032V58.444H44.364ZM36.756 61.648H38.064V58.804H36.588V57.988H40.416V58.804H38.952V61.648H40.272V62.476H38.952V65.2C39.408 65.044 39.84 64.876 40.272 64.684V65.524C39.168 65.98 37.98 66.364 36.708 66.676L36.492 65.848C37.02 65.752 37.548 65.632 38.064 65.488V62.476H36.756V61.648Z" fill="black"/><path d="M3.8147e-06 11C3.8147e-06 5.47716 4.47716 1.00001 10 1.00001H38C43.5229 1.00001 48 5.47716 48 11V39C48 44.5229 43.5229 49 38 49H10C4.47716 49 3.8147e-06 44.5229 3.8147e-06 39V11Z" fill="url(#paint0_linear_2483_15959)"/><path opacity="0.7" d="M33.5149 13.332H25.3751C25.3714 13.332 25.3684 13.335 25.3684 13.3387C25.3684 13.3423 25.3654 13.3453 25.3618 13.3453C23.924 13.3474 22.8616 14.0359 22.4357 15.2263C22.3112 15.6024 22.2344 16.029 22.2344 16.4794V21.3672C22.2344 22.3209 22.5231 23.1104 23.0742 23.6615C23.6252 24.2125 24.4147 24.5013 25.3684 24.5013C25.8824 24.5013 26.3089 24.9278 26.3089 25.4418C26.3089 26.084 27.0254 26.4663 27.5589 26.1087L29.7317 24.6523C29.8828 24.5516 30.0709 24.488 30.259 24.488H33.5175C33.9679 24.488 34.3944 24.4244 34.7839 24.2867C35.9734 23.8602 36.6516 22.7952 36.6516 21.354V16.4661C36.6516 14.5348 35.4488 13.332 33.5175 13.332H33.5149ZM25.8321 19.926C25.3049 19.926 24.8916 19.4995 24.8916 18.9855C24.8916 18.4716 25.3181 18.0451 25.8321 18.0451C26.346 18.0451 26.7725 18.4716 26.7725 18.9855C26.7725 19.4995 26.3593 19.926 25.8321 19.926ZM29.3635 19.926C28.8363 19.926 28.423 19.4995 28.423 18.9855C28.423 18.4716 28.8496 18.0451 29.3635 18.0451C29.8775 18.0451 30.304 18.4716 30.304 18.9855C30.304 19.4995 29.8775 19.926 29.3635 19.926ZM32.887 19.926C32.3598 19.926 31.9465 19.4995 31.9465 18.9855C31.9465 18.4716 32.3731 18.0451 32.887 18.0451C33.401 18.0451 33.8275 18.4716 33.8275 18.9855C33.8275 19.4995 33.401 19.926 32.887 19.926Z" fill="url(#paint1_linear_2483_15959)"/><path d="M31.3433 26.3329C30.995 26.3329 30.6468 26.4323 30.3582 26.6311L27.4925 28.5391C27.1542 28.7677 26.7761 28.8671 26.408 28.8671C26.0912 28.8671 25.7646 28.7786 25.487 28.6309C25.4841 28.6294 25.4809 28.6286 25.4776 28.6286C25.4744 28.6286 25.4711 28.6278 25.4682 28.6262C24.844 28.2877 24.4577 27.6431 24.4577 26.9292C24.4577 26.5416 24.1692 26.1839 23.7512 26.0447C23.0249 25.8062 22.3781 25.4087 21.8507 24.8919C20.9254 23.9677 20.408 22.636 20.408 21.1553V15C20.408 14.4477 19.9602 14 19.408 14H16.1592C13.8607 14 12 15.8584 12 18.1441V29.2845C12 31.5801 13.8607 33.4286 16.1592 33.4286H31.8408C34.1393 33.4286 36 31.5801 36 29.2845V27.3329C36 26.7806 35.5523 26.3329 35 26.3329H31.3433ZM28.5274 36.5292H26.2687C25.4428 36.5292 24.7662 35.8634 24.7662 35.0385V34.6708C24.7662 34.2634 24.4378 33.9354 24.0299 33.9354C23.6219 33.9354 23.2935 34.2634 23.2935 34.6708V35.0385C23.2935 35.8634 22.6269 36.5292 21.801 36.5292H19.5423C19.1443 36.5292 18.806 36.8671 18.806 37.2646C18.806 37.6621 19.1443 38 19.5423 38H28.5274C28.9254 38 29.2637 37.6721 29.2637 37.2646C29.2637 36.8572 28.9254 36.5292 28.5274 36.5292Z" fill="url(#paint2_linear_2483_15959)" stroke="url(#paint3_linear_2483_15959)" stroke-width="0.4"/><defs><linearGradient id="paint0_linear_2483_15959" x1="24" y1="1.00001" x2="24" y2="49" gradientUnits="userSpaceOnUse"><stop stop-color="#5BF776"/><stop offset="1" stop-color="#0DBC29"/></linearGradient><linearGradient id="paint1_linear_2483_15959" x1="29.443" y1="13.332" x2="29.443" y2="26.9465" gradientUnits="userSpaceOnUse"><stop stop-color="#E5FFE4"/><stop offset="1" stop-color="#C3FFB3"/></linearGradient><linearGradient id="paint2_linear_2483_15959" x1="24" y1="14" x2="24" y2="38" gradientUnits="userSpaceOnUse"><stop stop-color="#F6FFEF"/><stop offset="1" stop-color="#C2FFAB"/></linearGradient><linearGradient id="paint3_linear_2483_15959" x1="24" y1="14" x2="24" y2="38" gradientUnits="userSpaceOnUse"><stop stop-color="white"/><stop offset="1" stop-color="#7CDE5A"/></linearGradient></defs></svg>

<svg fill="none" viewBox="0 0 48 71"><path fill="#DADADA" d="M0 0h48v71H0z"/><path fill="white" d="M1140 90H-300V-19h1440z"/><path fill="black" d="M1.848 61.48c-.36.528-.756 1.044-1.188 1.524l-.276-.924c1.176-1.452 2.028-3.12 2.568-4.992l.804.372A16 16 0 0 1 2.7 60.064v8.16h-.852zm1.86-2.7h3.696c-.18-.48-.384-.936-.624-1.392l.828-.228c.252.528.444 1.008.588 1.452l-.456.168h3.78v.816H3.708zm1.104 1.788h5.676v.78H4.812zm0 1.692h5.676v.792H4.812zm5.892 1.776V68.2h-.84v-.648h-4.44v.648h-.84v-4.164zm-5.28 2.7h4.44V64.84h-4.44zm8.868-8.652h2.64c.168-.312.288-.624.372-.96l.9.12c-.096.3-.216.576-.36.84h3.96v5.868h-7.512zm6.672 5.124V62.2h-5.832v1.008zm-5.832-1.704h5.832v-.984h-5.832zm0-1.68h5.832v-.984h-5.832zm-1.44 4.944.816.168c-.288 1.104-.684 2.052-1.2 2.868l-.732-.468a8 8 0 0 0 1.116-2.568m5.784 3.252h-3.084c-.696 0-1.032-.348-1.032-1.02v-2.292h.876v2.112c0 .276.132.42.408.42h2.664c.276 0 .468-.072.564-.192.144-.168.252-.636.3-1.416l.828.264c-.096 1.008-.264 1.62-.504 1.848-.216.18-.564.276-1.02.276m-1.608-3.744c.648.624 1.14 1.176 1.488 1.644l-.66.456c-.36-.516-.84-1.08-1.464-1.704zm3.876.276c.768.96 1.356 1.812 1.764 2.532l-.684.48c-.432-.78-1.02-1.644-1.752-2.592zm11.688-2.616v2.352h-5.988v.828h6.54V68.2h-.852v-.504h-5.688v.492h-.864v-6.252zm-5.988 4.992h5.688v-1.116h-5.688zm0-3.336h5.148v-.96h-5.148zm7.644-3.108v2.172h-.84v-1.428h-8.496v1.428h-.84v-2.172h4.752c-.12-.288-.24-.54-.372-.78l.84-.144-.072-.048c.576-.72.984-1.5 1.248-2.364l.828.18c-.084.252-.168.492-.264.732h3.468v.756h-2.136c.252.336.456.648.6.936l-.768.288a8 8 0 0 0-.756-1.224h-.756a9.4 9.4 0 0 1-.732 1.152l-.648-.396c.132.276.264.576.384.912zm-8.736-1.668c-.288.468-.6.9-.96 1.296l-.756-.48a7.1 7.1 0 0 0 1.584-2.496l.828.18c-.096.264-.204.504-.3.744h3.216v.756h-2.016c.264.36.492.708.66 1.032l-.792.3c-.216-.456-.48-.9-.78-1.332zm14.64-1.14h5.868v5.544h-2.496v1.416h2.7v.816h-2.7v1.56h3.144v.828h-7.224v-.828H43.5v-1.56h-2.712v-.816H43.5V63.22h-2.508zm5.04 4.776v-1.62h-1.668v1.62zm-2.532 0v-1.62h-1.68v1.62zm-1.68-2.376h1.68v-1.632h-1.68zm2.544-1.632v1.632h1.668v-1.632zm-7.608 3.204h1.308v-2.844h-1.476v-.816h3.828v.816h-1.464v2.844h1.32v.828h-1.32V65.2c.456-.156.888-.324 1.32-.516v.84q-1.656.684-3.564 1.152l-.216-.828a18 18 0 0 0 1.572-.36v-3.012h-1.308z"/><path fill="url(#a)" d="M0 11C0 5.477 4.477 1 10 1h28c5.523 0 10 4.477 10 10v28c0 5.523-4.477 10-10 10H10C4.477 49 0 44.523 0 39z"/><path fill="url(#b)" d="M33.515 13.332h-8.14a.01.01 0 0 0-.007.007.01.01 0 0 1-.006.006c-1.438.002-2.5.69-2.926 1.881a4 4 0 0 0-.202 1.253v4.888c0 .954.29 1.743.84 2.294.551.551 1.34.84 2.294.84.514 0 .94.427.94.94a.803.803 0 0 0 1.25.668l2.174-1.457c.15-.1.339-.164.527-.164h3.258c.45 0 .877-.064 1.267-.201 1.19-.427 1.868-1.492 1.868-2.933v-4.888c0-1.931-1.203-3.134-3.135-3.134zm-7.683 6.594a.94.94 0 0 1-.94-.94c0-.514.426-.94.94-.94s.94.426.94.94-.413.94-.94.94m3.531 0a.94.94 0 0 1-.94-.94c0-.514.427-.94.94-.94.515 0 .941.426.941.94s-.426.94-.94.94m3.524 0a.94.94 0 0 1-.94-.94c0-.514.426-.94.94-.94s.94.426.94.94-.426.94-.94.94" opacity=".7"/><path fill="url(#c)" stroke="url(#d)" stroke-width=".4" d="M31.343 26.333c-.348 0-.696.1-.985.298l-2.866 1.908a1.92 1.92 0 0 1-1.084.328 2 2 0 0 1-.93-.238l-.01-.003a1.92 1.92 0 0 1-1.01-1.697c0-.387-.289-.745-.707-.884a4.9 4.9 0 0 1-1.9-1.153c-.926-.924-1.443-2.256-1.443-3.737V15a1 1 0 0 0-1-1h-3.249A4.153 4.153 0 0 0 12 18.144v11.14a4.146 4.146 0 0 0 4.16 4.145h15.68A4.146 4.146 0 0 0 36 29.284v-1.951a1 1 0 0 0-1-1zm-2.816 10.196H26.27a1.5 1.5 0 0 1-1.503-1.49v-.368a.734.734 0 0 0-.736-.736.734.734 0 0 0-.736.736v.367A1.49 1.49 0 0 1 21.8 36.53h-2.259a.747.747 0 0 0-.736.736c0 .397.338.735.736.735h8.985a.74.74 0 0 0 .737-.735.74.74 0 0 0-.737-.736Z"/><defs><linearGradient id="a" x1="24" x2="24" y1="1" y2="49" gradientUnits="userSpaceOnUse"><stop stop-color="#5BF776"/><stop offset="1" stop-color="#0DBC29"/></linearGradient><linearGradient id="b" x1="29.443" x2="29.443" y1="13.332" y2="26.947" gradientUnits="userSpaceOnUse"><stop stop-color="#E5FFE4"/><stop offset="1" stop-color="#C3FFB3"/></linearGradient><linearGradient id="c" x1="24" x2="24" y1="14" y2="38" gradientUnits="userSpaceOnUse"><stop stop-color="#F6FFEF"/><stop offset="1" stop-color="#C2FFAB"/></linearGradient><linearGradient id="d" x1="24" x2="24" y1="14" y2="38" gradientUnits="userSpaceOnUse"><stop stop-color="white"/><stop offset="1" stop-color="#7CDE5A"/></linearGradient></defs></svg>
